X:1
T:Title
%%score { ( 1 2 ) | ( 3 4 ) }
L:1/8
Q:1/4=118
M:3/4
K:F
V:1 treble nm="Grand Piano"
V:2 treble 
V:3 bass 
V:4 bass 
V:1
 A4 z2 | A4 z2 | z2 A4- | A2 z2 z2 | z2 F4 | B4 z2 | A6- | A6 | c4 z2 | ^F4 z2 | z2 F4- | %11
w: I.~H.~Meredith|||||||||||
 F2 z2 z2 | G4 z2 | e4 z2 | c6- | c6 | A4 z2 | A4 z2 | z2 A4- | A2 z2 z2 | z2 B,2 F2 | B4 z2 | %22
w: |||||||||||
 A6- | A6 | d4 z2 | _A4 z2 | z2 B4- | B2 z2 z2 | A6 | G6 | F6- | F4 z2 | c6 | =B6 | B6- | %35
w: |||||||||||||
 B2 z2 z2 | d6 | ^c6 | c6- | c2 z2 z2 | f4 z2 | B4 z2 | z2 G4- | G2 z2 z2 | c6 | E6 | F6- | %47
w: ||||||||||||
 F4 z2 |] %48
w: |
V:2
 z2 A,2 c2 | z2 B,2 G2 | F2 z2 A,2 | A,,2 G2 F2 | D2 z2 B,2 | z2 B,2 F2 | z2 C2 D2 | E2 D2 C2 | %8
 z2 B,2 G2 | z2 B,2 G2 | A2 z2 A,2 | A,,2 G2 A2 | z2 =B,2 =B2 | z2 =B,2 d2 | z2 E2 F2 | %15
 [B,G]2 F2 E2 | z2 A,2 c2 | z2 B,2 G2 | F2 z2 A,2 | A,,2 G2 F2 | D4 z2 | z2 B,2 F2 | z2 ^C2 D2 | %23
 E2 D2 ^C2 | z2 C2 A2 | z2 C2 =A2 | c2 z2 B,2 | G,,2 c2 d2 | z2 F2 F2 | z2 E2 E2 | %30
 z2 [A,C]2 [A,C]2 | [A,C]4 z2 | z2 E2 E2 | z2 F2 F2 | z2 G2 G2 | z2 [EA]2 [EG]2 | z2 B2 B2 | %37
 z2 B2 B2 | z2 F2 F2 | [CF]2 [DFd]2 [EBe]2 | z2 [Ac]2 [FAc]2 | z2 [D^F]2 [DFA]2 | [DGd]2 D2 C2 | %43
 [B,D]2 [A,FA]2 [B,FB]2 | z2 A2 A2 | z2 C2 C2 | z2 [A,C]2 [A,C]2 | [A,C]4 z2 |] %48
V:3
 F,,2 [C,F,]2 [C,F,A,]2 | C,,2 [C,E,]2 [C,E,B,]2 | F,,2 [C,F,A,]2 [C,F,]2 | %3
 z2 [C,F,A,]2 [C,F,A,]2 | B,,2 [D,F,B,]2 [D,F,]2 | B,,2 [^C,F,]2 [C,F,B,]2 | %6
 F,,2 [C,F,A,]2 [C,F,A,]2 | A,,2 [C,F,A,]2 [C,F,A,]2 | G,,2 [C,E,]2 [C,E,B,]2 | %9
 C,,2 [C,E,]2 [C,E,B,]2 | F,,2 [C,F,A,]2 [C,F,]2 | z2 [C,F,A,]2 [C,F,A,]2 | %12
 G,,2 [F,G,]2 [F,G,=B,]2 | G,,2 [F,G,]2 [F,G,=B,]2 | z2 G,2 A,2 | z2 A,2 G,2 | %16
 F,,2 [C,F,]2 [C,F,A,]2 | C,,2 [C,E,]2 [C,E,B,]2 | F,,2 [C,F,A,]2 [C,F,]2 | %19
 z2 [C,F,A,]2 [C,F,A,]2 | B,,2 [D,F,]2 [D,F,B,]2 | B,,2 [D,F,]2 [D,F,B,]2 | z2 E,2 F,2 | %23
 G,2 F,2 E,2 | D,,2 [D,^F,]2 [D,F,C]2 | D,,2 [D,^F,]2 [D,F,C]2 | G,,2 [D,G,B,]2 [D,G,]2 | %27
 z2 [D,G,B,]2 [D,G,B,]2 | z2 C2 C2 | z2 B,2 B,2 | F,2 C,2 A,,2 | F,,4 z2 | z2 C2 C2 | z2 D2 D2 | %34
 z2 C2 C2 | z2[K:treble] C2 C2 | z2 E2 E2 | z2 E2 E2 | z2 C2 C2 | A,2 B,2 G,2 | z2 F2 _E,2 | %41
 z2 C2 C,2 | B,,2 B,,2 A,,2 | G,,2 D,2 ^C,2 | z2[K:treble] [CF]2 [CF]2 | z2 B,2 B,2 | %46
 F,2 C,2 A,,2 | F,,4 z2 |] %48
V:4
 x6 | x6 | x6 | x6 | x6 | x6 | x6 | x6 | x6 | x6 | x6 | x6 | x6 | x6 | C,6 | C,6 | x6 | x6 | x6 | %19
 x6 | x6 | x6 | A,,6- | A,,6 | x6 | x6 | x6 | x6 | C,6 | C,6 | x6 | x6 | C,6 | D,6 | E,6 | %35
 C,6[K:treble] | B,6 | G,6 | A,6 | x6 | F,4 z2 | D,4 z2 | x6 | x6 | C,6[K:treble] | C,6 | x6 | %47
 x6 |] %48

